src/assets/shortLogo.svg

<svg xmlns="http://www.w3.org/2000/svg" xmlns:xlink="http://www.w3.org/1999/xlink" preserveAspectRatio="xMidYMid meet" version="1.0" viewBox="133.22 149.85 181.86 75" zoomAndPan="magnify"><defs><clipPath id="id1"><path d="M 137.03125 149.847656 L 212.03125 149.847656 L 212.03125 224.847656 L 137.03125 224.847656 Z M 137.03125 149.847656" clip-rule="nonzero"/></clipPath><clipPath id="id2"><path d="M 133.21875 155.210938 L 179 155.210938 L 179 199 L 133.21875 199 Z M 133.21875 155.210938" clip-rule="nonzero"/></clipPath><clipPath id="id3"><path d="M 167 176 L 211.96875 176 L 211.96875 219.710938 L 167 219.710938 Z M 167 176" clip-rule="nonzero"/></clipPath></defs><g clip-path="url(#id1)"><path fill="#dee3f5" fill-opacity="1" fill-rule="nonzero" d="M 174.53125 149.847656 C 153.820312 149.847656 137.03125 166.636719 137.03125 187.347656 C 137.03125 208.058594 153.820312 224.847656 174.53125 224.847656 C 195.242188 224.847656 212.03125 208.058594 212.03125 187.347656 C 212.03125 166.636719 195.242188 149.847656 174.53125 149.847656"/></g><path fill="#005ce6" fill-opacity="1" fill-rule="nonzero" d="M 160.996094 176.691406 C 161.582031 175.679688 161.863281 174.527344 161.863281 173.261719 C 161.863281 172 161.582031 170.859375 160.996094 169.835938 C 160.414062 168.824219 159.628906 168.015625 158.621094 167.449219 C 157.613281 166.878906 156.476562 166.59375 155.21875 166.59375 C 153.960938 166.59375 152.824219 166.878906 151.816406 167.449219 C 150.808594 168.015625 150.023438 168.808594 149.441406 169.835938 C 148.855469 170.859375 148.574219 172 148.574219 173.261719 C 148.574219 174.527344 148.855469 175.664062 149.441406 176.691406 C 150.023438 177.71875 150.808594 178.507812 151.816406 179.078125 C 152.824219 179.648438 153.960938 179.933594 155.21875 179.933594 C 156.476562 179.933594 157.613281 179.648438 158.621094 179.078125 C 159.628906 178.507812 160.414062 177.71875 160.996094 176.691406 Z M 160.996094 176.691406"/><g clip-path="url(#id2)"><path fill="#005ce6" fill-opacity="1" fill-rule="nonzero" d="M 178.160156 175.207031 C 178.160156 164.207031 168.082031 155.25 155.691406 155.25 C 143.296875 155.25 133.21875 164.207031 133.21875 175.207031 C 133.21875 180.34375 135.410156 185.210938 139.394531 188.9375 C 139.785156 189.300781 139.882812 189.902344 139.613281 190.378906 L 135.582031 197.394531 C 135.265625 197.929688 135.804688 198.5625 136.386719 198.355469 L 147.863281 194.167969 C 148.101562 194.089844 148.351562 194.074219 148.589844 194.152344 C 150.871094 194.832031 153.265625 195.179688 155.691406 195.179688 C 168.082031 195.179688 178.160156 186.222656 178.160156 175.207031 Z M 164.132812 186.316406 C 163.296875 186.695312 162.382812 186.882812 161.390625 186.882812 C 160.101562 186.882812 158.902344 186.585938 157.832031 186 C 156.746094 185.414062 155.519531 184.402344 154.132812 182.949219 C 152.382812 182.808594 150.824219 182.300781 149.441406 181.417969 C 148.054688 180.546875 146.984375 179.394531 146.195312 177.988281 C 145.425781 176.566406 145.03125 175 145.03125 173.261719 C 145.03125 171.429688 145.472656 169.753906 146.351562 168.269531 C 147.234375 166.785156 148.449219 165.613281 149.992188 164.777344 C 151.535156 163.941406 153.265625 163.511719 155.203125 163.511719 C 157.125 163.511719 158.855469 163.941406 160.414062 164.777344 C 161.957031 165.613281 163.171875 166.769531 164.054688 168.253906 C 164.933594 169.738281 165.375 171.398438 165.375 173.261719 C 165.375 174.765625 165.078125 176.140625 164.476562 177.417969 C 163.878906 178.683594 163.0625 179.773438 161.988281 180.675781 C 160.933594 181.574219 159.691406 182.207031 158.289062 182.601562 C 158.808594 183.15625 159.328125 183.566406 159.832031 183.820312 C 160.335938 184.070312 160.871094 184.199219 161.453125 184.199219 C 162.699219 184.199219 163.769531 183.691406 164.699219 182.679688 L 166.320312 184.625 C 165.707031 185.382812 164.964844 185.9375 164.132812 186.316406 Z M 164.132812 186.316406"/></g><path fill="#005ce6" fill-opacity="1" fill-rule="nonzero" d="M 185.910156 198.671875 L 192.996094 198.671875 L 189.4375 190.394531 Z M 185.910156 198.671875"/><g clip-path="url(#id3)"><path fill="#005ce6" fill-opacity="1" fill-rule="nonzero" d="M 205.578125 211.503906 C 205.308594 211.03125 205.386719 210.445312 205.796875 210.066406 C 209.78125 206.335938 211.96875 201.46875 211.96875 196.335938 C 211.96875 185.320312 201.890625 176.375 189.5 176.375 C 186.289062 176.375 183.199219 176.960938 180.304688 178.113281 C 180.019531 180.121094 179.421875 182.066406 178.539062 183.929688 C 177.28125 186.585938 175.484375 188.96875 173.203125 191.007812 C 171.390625 192.636719 169.328125 193.980469 167.074219 195.023438 C 167.042969 195.464844 167.027344 195.890625 167.027344 196.335938 C 167.027344 207.347656 177.105469 216.292969 189.5 216.292969 C 191.925781 216.292969 194.316406 215.945312 196.601562 215.265625 C 196.835938 215.203125 197.089844 215.203125 197.324219 215.28125 L 208.804688 219.46875 C 209.386719 219.675781 209.921875 219.042969 209.609375 218.503906 Z M 196.050781 205.816406 L 194.160156 201.4375 L 184.726562 201.4375 L 182.855469 205.816406 L 179.25 205.816406 L 187.734375 186.867188 L 191.183594 186.867188 L 199.71875 205.816406 Z M 196.050781 205.816406"/></g><g fill="#1b1c1e" fill-opacity="1"><g><g><path d="M 10.59375 -25.703125 L 10.59375 -19.234375 L 21.015625 -19.234375 L 21.015625 -13.234375 L 10.59375 -13.234375 L 10.59375 -6.234375 L 22.375 -6.234375 L 22.375 0 L 2.8125 0 L 2.8125 -31.9375 L 22.375 -31.9375 L 22.375 -25.703125 Z M 10.59375 -25.703125" transform="translate(226.323711, 203.249987)"/></g></g></g><g fill="#005ce6" fill-opacity="1"><g><g><path d="M 25.578125 5.453125 L 21.46875 -0.046875 C 20.257812 0.191406 19.078125 0.3125 17.921875 0.3125 C 14.921875 0.3125 12.171875 -0.382812 9.671875 -1.78125 C 7.171875 -3.175781 5.179688 -5.125 3.703125 -7.625 C 2.234375 -10.125 1.5 -12.9375 1.5 -16.0625 C 1.5 -19.1875 2.234375 -21.988281 3.703125 -24.46875 C 5.179688 -26.957031 7.171875 -28.898438 9.671875 -30.296875 C 12.171875 -31.691406 14.921875 -32.390625 17.921875 -32.390625 C 20.929688 -32.390625 23.6875 -31.691406 26.1875 -30.296875 C 28.6875 -28.898438 30.65625 -26.957031 32.09375 -24.46875 C 33.539062 -21.988281 34.265625 -19.1875 34.265625 -16.0625 C 34.265625 -13.332031 33.707031 -10.835938 32.59375 -8.578125 C 31.488281 -6.316406 29.953125 -4.441406 27.984375 -2.953125 L 34.984375 5.453125 Z M 9.46875 -16.0625 C 9.46875 -13.238281 10.234375 -10.984375 11.765625 -9.296875 C 13.296875 -7.617188 15.347656 -6.78125 17.921875 -6.78125 C 20.472656 -6.78125 22.515625 -7.628906 24.046875 -9.328125 C 25.578125 -11.023438 26.34375 -13.269531 26.34375 -16.0625 C 26.34375 -18.882812 25.578125 -21.132812 24.046875 -22.8125 C 22.515625 -24.5 20.472656 -25.34375 17.921875 -25.34375 C 15.347656 -25.34375 13.296875 -24.507812 11.765625 -22.84375 C 10.234375 -21.175781 9.46875 -18.914062 9.46875 -16.0625 Z M 9.46875 -16.0625" transform="translate(250.938944, 203.249459)"/></g></g></g><g fill="#005ce6" fill-opacity="1"><g><g><path d="M 22.15625 -16.375 C 24.007812 -15.976562 25.492188 -15.0625 26.609375 -13.625 C 27.734375 -12.1875 28.296875 -10.539062 28.296875 -8.6875 C 28.296875 -6.019531 27.363281 -3.90625 25.5 -2.34375 C 23.632812 -0.78125 21.035156 0 17.703125 0 L 2.828125 0 L 2.828125 -31.9375 L 17.203125 -31.9375 C 20.441406 -31.9375 22.976562 -31.191406 24.8125 -29.703125 C 26.65625 -28.222656 27.578125 -26.207031 27.578125 -23.65625 C 27.578125 -21.78125 27.082031 -20.21875 26.09375 -18.96875 C 25.101562 -17.726562 23.789062 -16.863281 22.15625 -16.375 Z M 10.59375 -19.015625 L 15.703125 -19.015625 C 16.972656 -19.015625 17.945312 -19.296875 18.625 -19.859375 C 19.3125 -20.421875 19.65625 -21.25 19.65625 -22.34375 C 19.65625 -23.4375 19.3125 -24.269531 18.625 -24.84375 C 17.945312 -25.414062 16.972656 -25.703125 15.703125 -25.703125 L 10.59375 -25.703125 Z M 16.328125 -6.28125 C 17.640625 -6.28125 18.648438 -6.570312 19.359375 -7.15625 C 20.066406 -7.75 20.421875 -8.609375 20.421875 -9.734375 C 20.421875 -10.859375 20.050781 -11.738281 19.3125 -12.375 C 18.570312 -13.007812 17.550781 -13.328125 16.25 -13.328125 L 10.59375 -13.328125 L 10.59375 -6.28125 Z M 16.328125 -6.28125" transform="translate(286.786816, 203.249459)"/></g></g></g></svg>

<svg xmlns="http://www.w3.org/2000/svg" version="1.0" viewBox="133.22 149.85 181.86 75"><defs><clipPath id="a"><path d="M137.031 149.848h75v75h-75zm0 0"/></clipPath><clipPath id="b"><path d="M133.219 155.21H179V199h-45.781zm0 0"/></clipPath><clipPath id="c"><path d="M167 176h44.969v43.71H167zm0 0"/></clipPath></defs><g clip-path="url(#a)"><path fill="#dee3f5" d="M174.531 149.848c-20.71 0-37.5 16.789-37.5 37.5 0 20.71 16.79 37.5 37.5 37.5 20.711 0 37.5-16.79 37.5-37.5 0-20.711-16.789-37.5-37.5-37.5"/></g><path fill="#005ce6" d="M160.996 176.691c.586-1.011.867-2.164.867-3.43 0-1.261-.281-2.402-.867-3.425-.582-1.012-1.367-1.82-2.375-2.387-1.008-.57-2.144-.855-3.402-.855s-2.395.285-3.403.855a6.145 6.145 0 0 0-2.375 2.387c-.586 1.023-.867 2.164-.867 3.426 0 1.265.281 2.402.867 3.43a6.171 6.171 0 0 0 2.375 2.386c1.008.57 2.145.856 3.403.856s2.394-.286 3.402-.856a6.171 6.171 0 0 0 2.375-2.387zm0 0"/><g clip-path="url(#b)"><path fill="#005ce6" d="M178.16 175.207c0-11-10.078-19.957-22.469-19.957-12.394 0-22.472 8.957-22.472 19.957 0 5.137 2.191 10.004 6.176 13.73.39.364.488.965.218 1.442l-4.031 7.016c-.316.535.223 1.167.805.96l11.476-4.187c.239-.078.489-.094.727-.016a24.882 24.882 0 0 0 7.101 1.028c12.391 0 22.47-8.957 22.47-19.973zm-14.027 11.11c-.836.378-1.75.566-2.742.566-1.29 0-2.489-.297-3.559-.883-1.086-.586-2.312-1.598-3.7-3.05-1.75-.141-3.308-.65-4.69-1.532a9.42 9.42 0 0 1-3.247-3.43c-.77-1.422-1.164-2.988-1.164-4.726 0-1.832.442-3.508 1.32-4.992a9.345 9.345 0 0 1 3.641-3.493c1.543-.836 3.274-1.265 5.211-1.265 1.922 0 3.652.43 5.211 1.265 1.543.836 2.758 1.993 3.64 3.477.88 1.484 1.321 3.144 1.321 5.008 0 1.504-.297 2.879-.898 4.156a9.46 9.46 0 0 1-2.489 3.258c-1.054.898-2.297 1.531-3.699 1.926.52.554 1.04.964 1.543 1.218.504.25 1.04.38 1.621.38 1.246 0 2.317-.509 3.246-1.52l1.621 1.945a5.958 5.958 0 0 1-2.187 1.691zm0 0"/></g><path fill="#005ce6" d="M185.91 198.672h7.086l-3.559-8.277zm0 0"/><g clip-path="url(#c)"><path fill="#005ce6" d="M205.578 211.504a1.156 1.156 0 0 1 .219-1.438c3.984-3.73 6.172-8.597 6.172-13.73 0-11.016-10.078-19.961-22.469-19.961-3.21 0-6.3.586-9.195 1.738a20.178 20.178 0 0 1-1.766 5.817c-1.258 2.656-3.055 5.039-5.336 7.078a24.585 24.585 0 0 1-6.129 4.015c-.031.442-.047.868-.047 1.313 0 11.012 10.078 19.957 22.473 19.957 2.426 0 4.816-.348 7.102-1.027.234-.063.488-.063.722.015l11.48 4.188c.583.207 1.118-.426.805-.965zm-9.527-5.688-1.89-4.379h-9.434l-1.872 4.38h-3.605l8.484-18.95h3.45l8.535 18.95zm0 0"/></g><path d="M236.917 177.547v6.469h10.422v6h-10.422v7H248.7v6.234h-19.563v-31.938H248.7v6.235zm0 0" fill="#1b1c1e"/><path d="m276.517 208.703-4.11-5.5c-1.21.238-2.39.359-3.546.359-3 0-5.75-.695-8.25-2.094-2.5-1.394-4.492-3.344-5.969-5.844-1.469-2.5-2.203-5.312-2.203-8.437 0-3.125.734-5.926 2.203-8.406 1.477-2.489 3.469-4.43 5.969-5.828 2.5-1.395 5.25-2.094 8.25-2.094 3.008 0 5.765.7 8.265 2.094a15.364 15.364 0 0 1 5.907 5.828c1.445 2.48 2.172 5.281 2.172 8.406 0 2.73-.559 5.227-1.672 7.484-1.106 2.262-2.64 4.137-4.61 5.625l7 8.407zm-16.11-21.516c0 2.824.766 5.078 2.298 6.766 1.53 1.68 3.582 2.515 6.156 2.515 2.55 0 4.594-.847 6.125-2.547 1.531-1.695 2.297-3.941 2.297-6.734 0-2.82-.766-5.07-2.297-6.75-1.531-1.688-3.574-2.531-6.125-2.531-2.574 0-4.625.836-6.156 2.5-1.532 1.668-2.297 3.93-2.297 6.781zM308.943 186.874c1.852.399 3.336 1.313 4.453 2.75 1.125 1.438 1.688 3.086 1.688 4.938 0 2.668-.934 4.781-2.797 6.344-1.867 1.562-4.465 2.343-7.797 2.343h-14.875v-31.937h14.375c3.238 0 5.773.746 7.61 2.234 1.843 1.48 2.765 3.496 2.765 6.047 0 1.875-.496 3.438-1.484 4.688-.993 1.242-2.305 2.105-3.938 2.593zm-11.562-2.64h5.109c1.27 0 2.242-.281 2.922-.844.687-.562 1.031-1.39 1.031-2.484s-.344-1.926-1.031-2.5c-.68-.57-1.653-.86-2.922-.86h-5.11zm5.734 12.734c1.312 0 2.32-.289 3.031-.875.707-.594 1.063-1.453 1.063-2.578 0-1.125-.371-2.004-1.11-2.64-.742-.633-1.761-.954-3.062-.954h-5.656v7.047zm0 0" fill="#005ce6"/></svg>
